; generated by PrusaSlicer 2.3.1+win64 on 2021-05-31 at 16:39:48 UTC

; 

; external perimeters extrusion width = 0.45mm
; perimeters extrusion width = 0.45mm
; infill extrusion width = 0.45mm
; solid infill extrusion width = 0.45mm
; top infill extrusion width = 0.40mm
; first layer extrusion width = 0.45mm

M201 X1000 Y1000 Z1000 E5000 ; sets maximum accelerations, mm/sec^2
M203 X200 Y200 Z12 E120 ; sets maximum feedrates, mm/sec
M204 P1000 R1000 T1000 ; sets acceleration (P, T) and retract acceleration (R), mm/sec^2
M205 X8.00 Y8.00 Z0.40 E1.50 ; sets the jerk limits, mm/sec
M205 S0 T0 ; sets the minimum extruding and travel feed rate, mm/sec
M107
;TYPE:Custom
M117 Heating... ;Put printing message on LCD screen
M300 S2500 P100; Beep
;M221 S95 ; Set flow
M104 S210 ; set extruder temp
M140 S60 ; set bed temp
G1 Z20 ; this is a good start heating position
G28 X Y; Home XY
M84 ; disable motors
M190 S60 ; wait for bed temp
M109 S210 ; wait for extruder temp

; Start of print
G21; metric values
G90 ; absolute positioning
M82; set extruder to absolute mode

G28;

; Prepare nozzle
G92 E0 ; Set extrusion distance to 0
G92 E0 ; Set extrusion distance to 0
G1 F1800 E3;
G92 E0 ; Set extrusion distance to 0
G90;


; You may want to adjust the X and Y here so the nozzle is really above the bed!
G1 X5.0 Y5.0 F7200 ; Move to a position in the left front of the bed
G1 Z0.6; Move nozzle above 0.6 mm of the bed

G91 ; Use relative mode
; Make some jerky zick-zack move at the beginning
; This is supposed to get rid of residue at the nozzle
G1 X1.0 Y5.0 Z-0.1 E-1.0 F7200 ; X6 Y10 Z0.1, retract a tiny bit / 120mm/s
G1 X1.0 Y-5.0 Z0.1 E2.0 F7200 ; X7 Y5 Z0.2 extrude a tiny bit
G1 X2.0 Y5.0 Z-0.1 F7200 ; X9 Y10 Z0.1
G1 X2.0 Y-5.0 Z0.1 F7200 ; X11 Y5 Z0.2
G1 X2.0 Y5.0 F7200 ; X13 Y10
G1 X2.0 Y-5.0 F7200 ; X15 Y5

; now print a line of filament to prepare extrusion
G1 Y50 E20 F1000 ; prints a line in the front
G1 Y50 E40 F1000 ; prints a line in the front

; Done with the dancing :)
G92 E0 ; Set extrusion distance to 0
G90 ; switch back to absolute mode

M117 Printing... ;Put printing message on LCD screen
; Start of actual GCode for the print
G21 ; set units to millimeters
G90 ; use absolute coordinates
M83 ; use relative distances for extrusion
; Filament gcode
;LAYER_CHANGE
;Z:0.2
;HEIGHT:0.2
;BEFORE_LAYER_CHANGE
;Layer 0
;0.2mm
;Printing layer 0 at 0.2mm


G1 E-6.80000 F3600.000
G1 Z0.600 F9000.000
;AFTER_LAYER_CHANGE
;Layer 0
;0.2mm
;Printing layer 0 at 0.2mm


G1 X60.384 Y67.374
G1 Z0.200
G1 E6.80000 F3600.000
M204 S1000
;TYPE:Skirt
;WIDTH:0.45
G1 F1200.000
G1 X62.149 Y65.946 E0.07683
G1 X64.049 Y64.712 E0.07670
G1 X66.078 Y63.678 E0.07709
G1 X68.191 Y62.868 E0.07657
G1 X70.383 Y62.280 E0.07683
G1 X72.625 Y61.925 E0.07683
G1 X74.895 Y61.807 E0.07696
G1 X77.158 Y61.925 E0.07670
G1 X79.404 Y62.281 E0.07696
G1 X81.596 Y62.869 E0.07683
G1 X83.760 Y63.704 E0.07851
G1 X132.591 Y88.865 E1.85938
G1 X134.516 Y89.957 E0.07490
G1 X136.331 Y91.249 E0.07544
G1 X138.083 Y92.801 E0.07919
G1 X139.594 Y94.452 E0.07578
G1 X140.856 Y96.140 E0.07133
G1 X141.947 Y97.950 E0.07155
G1 X142.949 Y100.069 E0.07932
G1 X143.686 Y102.184 E0.07583
G1 X144.200 Y104.365 E0.07583
G1 X144.491 Y106.656 E0.07816
G1 X144.543 Y108.819 E0.07324
G1 X144.352 Y111.153 E0.07928
G1 X143.971 Y113.226 E0.07133
G1 X143.384 Y115.252 E0.07142
G1 X142.551 Y117.336 E0.07595
G1 X141.461 Y119.402 E0.07906
G1 X140.211 Y121.261 E0.07583
G1 X138.776 Y122.981 E0.07583
G1 X137.109 Y124.595 E0.07855
G1 X135.384 Y125.952 E0.07427
G1 X89.320 Y156.901 E1.87845
G1 X87.401 Y157.918 E0.07353
G1 X85.288 Y158.749 E0.07684
G1 X83.329 Y159.290 E0.06881
G1 X81.331 Y159.621 E0.06855
G1 X79.153 Y159.753 E0.07386
G1 X76.775 Y159.622 E0.08059
G1 X74.766 Y159.289 E0.06894
G1 X72.704 Y158.717 E0.07244
G1 X70.581 Y157.861 E0.07749
G1 X68.786 Y156.906 E0.06881
G1 X67.108 Y155.772 E0.06855
G1 X65.359 Y154.300 E0.07736
G1 X63.795 Y152.634 E0.07736
G1 X62.572 Y151.020 E0.06855
G1 X61.517 Y149.273 E0.06907
G1 X60.514 Y147.101 E0.08098
G1 X59.864 Y145.159 E0.06933
G1 X59.388 Y142.955 E0.07632
G1 X53.325 Y85.756 E1.94695
G1 X53.208 Y83.594 E0.07328
G1 X53.324 Y81.232 E0.08006
G1 X53.678 Y78.994 E0.07670
G1 X54.265 Y76.797 E0.07696
G1 X55.033 Y74.788 E0.07281
G1 X56.177 Y72.542 E0.08533
G1 X57.355 Y70.736 E0.07297
G1 X58.858 Y68.895 E0.08045
G1 X60.342 Y67.416 E0.07091
; printing object Spindle_P1.STL id:1 copy 0
G1 E-4.76000 F3600.000
;WIPE_START
G1 F7200.000
G1 X62.149 Y65.946 E-1.10650
G1 X63.617 Y64.992 E-0.83150
;WIPE_END
G1 E-0.10200 F3600.000
G1 Z0.800 F9000.000
G1 X60.342 Y67.416
G1 X60.342 Y67.416
G1 X80.854 Y142.804
G1 Z0.200
G1 E6.80000 F3600.000
;TYPE:Perimeter
G1 F1200.000
G1 X77.244 Y142.804 E0.12217
G1 X76.611 Y142.268 E0.02809
G1 X76.228 Y141.808 E0.02024
G1 X75.931 Y141.290 E0.02024
G1 X75.728 Y140.727 E0.02024
G1 X75.626 Y140.138 E0.02024
G1 X75.628 Y139.540 E0.02024
G1 X75.733 Y138.952 E0.02024
G1 X75.938 Y138.390 E0.02024
G1 X76.238 Y137.873 E0.02024
G1 X76.623 Y137.416 E0.02024
G1 X77.082 Y137.032 E0.02024
G1 X77.600 Y136.734 E0.02024
G1 X78.161 Y136.529 E0.02024
G1 X78.750 Y136.426 E0.02024
G1 X79.348 Y136.426 E0.02024
G1 X79.937 Y136.529 E0.02024
G1 X80.499 Y136.734 E0.02024
G1 X81.017 Y137.032 E0.02024
G1 X81.475 Y137.416 E0.02024
G1 X81.860 Y137.873 E0.02024
G1 X82.160 Y138.390 E0.02024
G1 X82.365 Y138.952 E0.02024
G1 X82.471 Y139.540 E0.02024
G1 X82.472 Y140.138 E0.02024
G1 X82.370 Y140.727 E0.02024
G1 X82.167 Y141.290 E0.02024
G1 X81.870 Y141.808 E0.02024
G1 X81.488 Y142.268 E0.02024
G1 X80.900 Y142.765 E0.02606
G1 X80.705 Y142.397 F9000.000
;TYPE:External perimeter
G1 F1200.000
G1 X77.394 Y142.397 E0.11208
G1 X76.901 Y141.980 E0.02184
G1 X76.564 Y141.575 E0.01783
G1 X76.302 Y141.118 E0.01783
G1 X76.123 Y140.623 E0.01783
G1 X76.033 Y140.104 E0.01783
G1 X76.035 Y139.577 E0.01783
G1 X76.127 Y139.058 E0.01783
G1 X76.308 Y138.564 E0.01783
G1 X76.573 Y138.108 E0.01783
G1 X76.912 Y137.705 E0.01783
G1 X77.316 Y137.367 E0.01783
G1 X77.772 Y137.104 E0.01783
G1 X78.267 Y136.924 E0.01783
G1 X78.786 Y136.833 E0.01783
G1 X79.313 Y136.833 E0.01783
G1 X79.831 Y136.924 E0.01783
G1 X80.326 Y137.104 E0.01783
G1 X80.783 Y137.367 E0.01783
G1 X81.187 Y137.705 E0.01783
G1 X81.526 Y138.108 E0.01783
G1 X81.790 Y138.564 E0.01783
G1 X81.971 Y139.058 E0.01783
G1 X82.064 Y139.577 E0.01783
G1 X82.065 Y140.104 E0.01783
G1 X81.975 Y140.623 E0.01783
G1 X81.796 Y141.118 E0.01783
G1 X81.535 Y141.575 E0.01783
G1 X81.197 Y141.980 E0.01783
G1 X80.751 Y142.358 E0.01981
G1 X80.601 Y142.783 F9000.000
G1 E-6.80000 F3600.000
G1 Z0.800 F9000.000
G1 X87.642 Y154.129
G1 Z0.200
G1 E6.80000 F3600.000
;TYPE:Perimeter
G1 F1200.000
G1 X86.047 Y154.974 E0.06108
G1 X84.371 Y155.642 E0.06108
G1 X82.632 Y156.125 E0.06108
G1 X80.851 Y156.417 E0.06108
G1 X79.049 Y156.515 E0.06108
G1 X77.247 Y156.417 E0.06108
G1 X75.466 Y156.125 E0.06108
G1 X73.727 Y155.642 E0.06108
G1 X72.051 Y154.974 E0.06108
G1 X70.457 Y154.129 E0.06108
G1 X68.963 Y153.116 E0.06108
G1 X67.588 Y151.948 E0.06108
G1 X66.346 Y150.638 E0.06108
G1 X65.254 Y149.201 E0.06108
G1 X64.324 Y147.655 E0.06108
G1 X63.566 Y146.017 E0.06108
G1 X62.990 Y144.307 E0.06108
G1 X62.602 Y142.544 E0.06108
G1 X62.407 Y140.750 E0.06108
G1 X62.407 Y138.946 E0.06108
G1 X62.602 Y137.152 E0.06108
G1 X62.990 Y135.389 E0.06108
G1 X63.566 Y133.679 E0.06108
G1 X64.289 Y132.116 E0.05829
G1 X65.255 Y130.494 E0.06391
G1 X66.346 Y129.058 E0.06104
G1 X67.588 Y127.748 E0.06108
G1 X68.963 Y126.580 E0.06108
G1 X70.457 Y125.567 E0.06108
G1 X72.051 Y124.722 E0.06108
G1 X73.727 Y124.054 E0.06108
G1 X75.466 Y123.571 E0.06108
G1 X77.247 Y123.279 E0.06108
G1 X79.049 Y123.181 E0.06108
G1 X80.851 Y123.279 E0.06108
G1 X82.632 Y123.571 E0.06108
G1 X84.371 Y124.054 E0.06108
G1 X86.047 Y124.722 E0.06108
G1 X87.642 Y125.567 E0.06108
G1 X89.135 Y126.580 E0.06108
G1 X90.511 Y127.748 E0.06108
G1 X91.752 Y129.058 E0.06108
G1 X92.844 Y130.495 E0.06108
G1 X93.732 Y131.971 E0.05829
G1 X94.533 Y133.680 E0.06391
G1 X95.108 Y135.389 E0.06103
G1 X95.496 Y137.152 E0.06108
G1 X95.691 Y138.946 E0.06108
G1 X95.691 Y140.750 E0.06108
G1 X95.496 Y142.544 E0.06108
G1 X95.108 Y144.307 E0.06108
G1 X94.532 Y146.017 E0.06108
G1 X93.774 Y147.655 E0.06108
G1 X92.844 Y149.201 E0.06108
G1 X91.752 Y150.638 E0.06108
G1 X90.511 Y151.948 E0.06108
G1 X89.135 Y153.116 E0.06108
G1 X87.691 Y154.095 E0.05905
G1 X87.920 Y154.432 F9000.000
;TYPE:External perimeter
G1 F1200.000
G1 X86.219 Y155.344 E0.06534
G1 X84.501 Y156.029 E0.06258
G1 X82.720 Y156.523 E0.06258
G1 X80.895 Y156.822 E0.06258
G1 X79.049 Y156.922 E0.06258
G1 X77.203 Y156.822 E0.06258
G1 X75.379 Y156.523 E0.06258
G1 X73.597 Y156.029 E0.06258
G1 X71.880 Y155.344 E0.06258
G1 X70.246 Y154.478 E0.06258
G1 X68.716 Y153.441 E0.06258
G1 X67.307 Y152.244 E0.06258
G1 X66.036 Y150.902 E0.06258
G1 X64.917 Y149.430 E0.06258
G1 X63.964 Y147.846 E0.06258
G1 X63.187 Y146.168 E0.06258
G1 X62.597 Y144.416 E0.06258
G1 X62.200 Y142.610 E0.06258
G1 X62.000 Y140.772 E0.06258
G1 X62.000 Y138.924 E0.06258
G1 X62.200 Y137.086 E0.06258
G1 X62.597 Y135.280 E0.06258
G1 X63.187 Y133.528 E0.06258
G1 X63.929 Y131.926 E0.05976
G1 X64.917 Y130.266 E0.06540
G1 X66.036 Y128.794 E0.06256
G1 X67.307 Y127.452 E0.06258
G1 X68.716 Y126.255 E0.06258
G1 X70.246 Y125.218 E0.06258
G1 X71.880 Y124.352 E0.06258
G1 X73.597 Y123.667 E0.06258
G1 X75.379 Y123.173 E0.06258
G1 X77.203 Y122.874 E0.06258
G1 X79.049 Y122.774 E0.06258
G1 X80.895 Y122.874 E0.06258
G1 X82.720 Y123.173 E0.06258
G1 X84.501 Y123.667 E0.06258
G1 X86.219 Y124.352 E0.06258
G1 X87.852 Y125.218 E0.06258
G1 X89.382 Y126.255 E0.06258
G1 X90.791 Y127.452 E0.06258
G1 X92.063 Y128.794 E0.06258
G1 X93.181 Y130.266 E0.06258
G1 X94.092 Y131.779 E0.05976
G1 X94.911 Y133.529 E0.06540
G1 X95.501 Y135.280 E0.06256
G1 X95.899 Y137.086 E0.06258
G1 X96.099 Y138.924 E0.06258
G1 X96.099 Y140.772 E0.06258
G1 X95.899 Y142.610 E0.06258
G1 X95.501 Y144.416 E0.06258
G1 X94.911 Y146.168 E0.06258
G1 X94.135 Y147.846 E0.06258
G1 X93.181 Y149.430 E0.06258
G1 X92.063 Y150.902 E0.06258
G1 X90.791 Y152.244 E0.06258
G1 X89.382 Y153.441 E0.06258
G1 X87.970 Y154.399 E0.05777
G1 X87.569 Y154.240 F9000.000
G1 E-6.80000 F3600.000
G1 Z0.800 F9000.000
G1 X92.267 Y129.937
G1 Z0.200
G1 E6.80000 F3600.000
;TYPE:Solid infill
;WIDTH:0.451777
G1 F1200.000
G1 X90.294 Y127.964 E0.09484
G1 X88.950 Y126.823 E0.05993
G1 X87.783 Y126.032 E0.04795
G1 X92.853 Y131.101 E0.24374
G1 X93.462 Y132.114 E0.04020
G1 X93.616 Y132.443 E0.01233
G1 X86.458 Y125.285 E0.34413
G1 X85.919 Y124.999 E0.02075
G1 X85.379 Y124.784 E0.01976
G1 X94.125 Y133.530 E0.42050
G1 X94.249 Y133.794 E0.00991
G1 X94.471 Y134.455 E0.02369
G1 X84.418 Y124.401 E0.48336
G1 X84.273 Y124.343 E0.00529
G1 X83.593 Y124.155 E0.02400
G1 X94.765 Y135.327 E0.53713
G1 X94.814 Y135.471 E0.00518
G1 X94.950 Y136.090 E0.02154
G1 X82.793 Y123.932 E0.58450
G1 X82.566 Y123.870 E0.00799
G1 X82.070 Y123.788 E0.01709
G1 X95.113 Y136.831 E0.62708
G1 X95.195 Y137.201 E0.01288
G1 X95.230 Y137.526 E0.01111
G1 X81.379 Y123.675 E0.66594
G1 X80.702 Y123.577 E0.02324
G1 X95.301 Y138.175 E0.70186
G1 X95.371 Y138.824 E0.02219
G1 X80.091 Y123.544 E0.73464
G1 X79.480 Y123.510 E0.02081
G1 X95.386 Y139.417 E0.76476
G1 X95.386 Y139.995 E0.01966
G1 X78.887 Y123.496 E0.79326
G1 X78.338 Y123.526 E0.01867
G1 X95.386 Y140.573 E0.81963
G1 X95.345 Y141.111 E0.01832
G1 X77.790 Y123.555 E0.84403
G1 X77.245 Y123.589 E0.01856
G1 X95.288 Y141.632 E0.86750
G1 X95.232 Y142.154 E0.01783
G1 X76.748 Y123.670 E0.88865
G1 X76.252 Y123.752 E0.01711
G1 X95.159 Y142.659 E0.90902
G1 X95.054 Y143.132 E0.01650
G1 X75.755 Y123.833 E0.92789
G1 X75.532 Y123.870 E0.00767
G1 X75.282 Y123.939 E0.00881
G1 X94.950 Y143.606 E0.94558
G1 X94.846 Y144.080 E0.01650
G1 X74.830 Y124.064 E0.96233
G1 X74.377 Y124.190 E0.01597
G1 X94.713 Y144.525 E0.97769
G1 X94.567 Y144.958 E0.01552
G1 X73.925 Y124.316 E0.99244
G1 X73.503 Y124.472 E0.01530
G1 X94.421 Y145.390 E1.00573
G1 X94.275 Y145.823 E0.01552
G1 X73.089 Y124.637 E1.01860
G1 X72.676 Y124.801 E0.01513
G1 X94.099 Y146.225 E1.03002
G1 X93.917 Y146.620 E0.01481
G1 X72.262 Y124.966 E1.04111
G1 X71.877 Y125.159 E0.01464
G1 X93.734 Y147.016 E1.05082
G1 X93.551 Y147.411 E0.01481
G1 X71.499 Y125.360 E1.06020
G1 X71.122 Y125.560 E0.01454
G1 X93.342 Y147.781 E1.06834
G1 X93.125 Y148.142 E0.01432
G1 X70.744 Y125.760 E1.07607
G1 X70.388 Y125.983 E0.01427
G1 X92.908 Y148.503 E1.08274
G1 X92.691 Y148.864 E0.01432
G1 X82.640 Y138.813 E0.48323
G1 X82.776 Y139.527 E0.02472
G1 X92.456 Y149.207 E0.46540
G1 X92.206 Y149.536 E0.01403
G1 X82.777 Y140.107 E0.45332
G1 X82.700 Y140.608 E0.01724
G1 X91.956 Y149.864 E0.44501
G1 X91.707 Y150.193 E0.01403
G1 X82.574 Y141.060 E0.43907
G1 X82.412 Y141.476 E0.01518
G1 X91.449 Y150.513 E0.43449
G1 X91.168 Y150.810 E0.01390
G1 X82.202 Y141.844 E0.43109
G1 X82.122 Y141.983 E0.00546
G1 X81.959 Y142.179 E0.00867
G1 X90.887 Y151.107 E0.42925
G1 X90.605 Y151.404 E0.01390
G1 X81.694 Y142.493 E0.42844
G1 X81.381 Y142.758 E0.01395
G1 X90.324 Y151.701 E0.42998
G1 X90.014 Y151.969 E0.01394
G1 X81.068 Y143.023 E0.43013
G1 X80.966 Y143.109 E0.00454
G1 X80.576 Y143.109 E0.01326
G1 X89.701 Y152.235 E0.43876
G1 X89.389 Y152.500 E0.01395
G1 X79.997 Y143.109 E0.45153
G1 X79.419 Y143.109 E0.01966
G1 X89.076 Y152.766 E0.46429
G1 X88.744 Y153.013 E0.01405
G1 X78.841 Y143.109 E0.47614
G1 X78.263 Y143.109 E0.01966
G1 X88.400 Y153.246 E0.48738
G1 X88.055 Y153.480 E0.01415
G1 X77.501 Y142.926 E0.50742
G1 E-4.76000 F3600.000
;WIPE_START
G1 F7200.000
G1 X80.386 Y145.811 E-1.93800
;WIPE_END
G1 E-0.10200 F3600.000
G1 Z0.800 F9000.000
G1 X77.501 Y142.926
G1 X77.501 Y142.926
G1 X76.504 Y141.025
G1 X76.338 Y140.566
G1 X76.255 Y140.085
G1 X76.256 Y139.597
G1 X76.342 Y139.116
G1 X76.510 Y138.658
G1 X76.754 Y138.236
G1 X77.069 Y137.862
G1 X77.443 Y137.549
G1 X77.866 Y137.305
G1 X78.325 Y137.139
G1 X80.391 Y136.565
G1 Z0.200
G1 E6.80000 F3600.000
G1 F1200.000
G1 X70.043 Y126.216 E0.49754
G1 X69.698 Y126.450 E0.01415
G1 X79.369 Y136.120 E0.46495
G1 X78.791 Y136.120 E0.01966
G1 X69.354 Y126.683 E0.45371
G1 X69.022 Y126.930 E0.01405
G1 X78.289 Y136.197 E0.44554
G1 X78.082 Y136.233 E0.00714
G1 X77.837 Y136.323 E0.00889
G1 X68.710 Y127.196 E0.43882
G1 X68.397 Y127.461 E0.01395
G1 X77.420 Y136.485 E0.43383
G1 X77.053 Y136.696 E0.01439
G1 X68.084 Y127.727 E0.43123
G1 X67.774 Y127.995 E0.01394
G1 X76.718 Y136.938 E0.42999
G1 X76.404 Y137.203 E0.01395
G1 X67.493 Y128.292 E0.42841
G1 X67.212 Y128.589 E0.01390
G1 X76.139 Y137.516 E0.42923
G1 X75.987 Y137.697 E0.00802
G1 X75.897 Y137.853 E0.00611
G1 X66.930 Y128.886 E0.43112
G1 X66.649 Y129.183 E0.01390
G1 X75.685 Y138.219 E0.43444
G1 X75.524 Y138.635 E0.01519
G1 X66.392 Y129.503 E0.43906
G1 X66.142 Y129.832 E0.01403
G1 X75.398 Y139.088 E0.44504
G1 X75.322 Y139.590 E0.01727
G1 X65.892 Y130.160 E0.45339
G1 X65.642 Y130.489 E0.01403
G1 X75.322 Y140.168 E0.46535
G1 X75.432 Y140.806 E0.02201
G1 X75.461 Y140.885 E0.00288
G1 X65.408 Y130.833 E0.48330
G1 X65.193 Y131.195 E0.01434
G1 X87.711 Y153.713 E1.08263
G1 X87.355 Y153.936 E0.01427
G1 X64.977 Y131.558 E1.07589
G1 X64.761 Y131.920 E0.01434
G1 X86.977 Y154.136 E1.06809
G1 X86.599 Y154.336 E0.01454
G1 X64.548 Y132.285 E1.06019
G1 X64.365 Y132.680 E0.01481
G1 X86.221 Y154.537 E1.05082
G1 X85.836 Y154.730 E0.01464
G1 X64.182 Y133.076 E1.04110
G1 X63.999 Y133.471 E0.01481
G1 X85.423 Y154.895 E1.03002
G1 X85.009 Y155.059 E0.01513
G1 X63.823 Y133.873 E1.01860
G1 X63.677 Y134.306 E0.01552
G1 X84.596 Y155.224 E1.00572
G1 X84.174 Y155.380 E0.01530
G1 X63.532 Y134.738 E0.99244
G1 X63.386 Y135.171 E0.01552
G1 X83.721 Y155.506 E0.97768
G1 X83.268 Y155.631 E0.01597
G1 X63.253 Y135.616 E0.96232
G1 X63.148 Y136.090 E0.01650
G1 X82.816 Y155.757 E0.94558
G1 X82.566 Y155.826 E0.00880
G1 X82.343 Y155.863 E0.00768
G1 X63.044 Y136.564 E0.92788
G1 X62.940 Y137.037 E0.01650
G1 X81.847 Y155.944 E0.90902
G1 X81.350 Y156.026 E0.01711
G1 X62.867 Y137.543 E0.88865
G1 X62.810 Y138.064 E0.01783
G1 X80.853 Y156.107 E0.86749
G1 X80.308 Y156.141 E0.01856
G1 X62.753 Y138.586 E0.84402
G1 X62.712 Y139.123 E0.01832
